X: 5688
T: Byth Adra
R: jig
M: 6/8
K: Amajor
E2 c cBA|FAF ~E3|E2 c cBA|cde ~B3|E2 c cBA|FAd f2 a|
efe dcB|1 cAA ~A3:|2 cAA Ace|:~a3 agf|~e3 edc|Bcd dcB|
caf ~e3|~a3 agf|~e3 edc|Bdf ecA|1 GAB Ace:|2 GAB ~A3||

